packages/Snapp/src/PlayWithBorderIcon/index.svg

<?xml version="1.0" encoding="UTF-8"?>
<svg width="24px" height="24px" viewBox="0 0 24 24" version="1.1" xmlns="http://www.w3.org/2000/svg" xmlns:xlink="http://www.w3.org/1999/xlink">
    <title>Icons/24/PlayWithBorder</title>
    <g id="Icons/24/PlayWithBorder" stroke="none" stroke-width="1" fill="none" fill-rule="evenodd">
        <rect id="Container" fill-opacity="0" fill="#D8D8D8" fill-rule="nonzero" x="0" y="0" width="24" height="24"></rect>
        <path d="M12,2 C17.5228475,2 22,6.4771525 22,12 C22,17.5228475 17.5228475,22 12,22 C6.4771525,22 2,17.5228475 2,12 C2,6.4771525 6.4771525,2 12,2 Z M12,3.66666667 C7.39762709,3.66666667 3.66666667,7.39762709 3.66666667,12 C3.66666667,16.6023729 7.39762709,20.3333333 12,20.3333333 C16.6023729,20.3333333 20.3333333,16.6023729 20.3333333,12 C20.3333333,7.39762709 16.6023729,3.66666667 12,3.66666667 Z M9.56041667,8.50834479 C9.56041667,7.97583367 10.1321269,7.6522826 10.5724094,7.94213043 L10.5724094,7.94213043 L15.9215141,11.427045 C16.3289397,11.6966709 16.3289397,12.3033291 15.9215141,12.5662144 L15.9215141,12.5662144 L10.5724094,16.0578696 C10.1321269,16.3477174 9.56041667,16.0241663 9.56041667,15.4916552 L9.56041667,15.4916552 Z" id="Combined-Shape" fill="#404040"></path>
    </g>
</svg>

<svg viewBox="0 0 24 24" xmlns="http://www.w3.org/2000/svg" fill="currentColor" focusable="false">
  <path d="M12 2c5.523 0 10 4.477 10 10s-4.477 10-10 10S2 17.523 2 12 6.477 2 12 2zm0 1.667a8.333 8.333 0 100 16.666 8.333 8.333 0 000-16.666zM9.56 8.508c0-.532.572-.856 1.012-.566l5.35 3.485a.684.684 0 010 1.14l-5.35 3.49c-.44.29-1.012-.033-1.012-.565z" fill="none"/>
</svg>
